svg/color/cel.svg

<svg width="64" height="65" viewBox="0 0 64 65" fill="none" xmlns="http://www.w3.org/2000/svg">
<g clip-path="url(#clip0_11313_1966)">
<rect y="0.303711" width="64" height="64" rx="32" fill="white"/>
<path fill-rule="evenodd" clip-rule="evenodd" d="M31.8336 52.2136C37.3796 52.2136 42.8146 49.8843 46.5858 45.6694C46.6967 45.4475 46.8077 45.2257 46.9186 45.1148C46.8077 44.782 46.6967 44.5602 46.4749 44.4493L44.1456 42.8964C43.9238 42.7855 43.7019 42.6746 43.4801 42.6746C43.1473 42.6746 42.8146 42.7855 42.5927 43.0073C39.7089 45.8912 35.9376 47.4441 31.9446 47.4441H31.9445C31.279 47.4441 30.7244 47.4441 30.1699 47.3332C23.2929 46.5567 17.747 41.0108 16.9706 34.1338C16.416 29.808 17.747 25.5931 20.6309 22.3765C23.4038 19.1598 27.5078 17.2742 31.8336 17.2742C34.8284 17.2742 37.8232 18.1616 40.3744 19.9363C40.4853 20.0472 40.818 20.1581 41.0399 20.1581C41.3726 20.1581 41.7054 20.0472 41.9272 19.8254L44.0347 17.9397C44.2565 17.7179 44.3674 17.4961 44.3674 17.1633C44.3674 16.9415 44.2565 16.6087 44.0347 16.4978C40.4853 13.7248 36.2704 12.2829 31.8336 12.2829C31.0572 12.2829 30.2808 12.2829 29.5044 12.3938C20.2981 13.503 12.9775 20.8236 11.9792 30.0299C11.4246 35.7976 13.0884 41.2326 16.9706 45.5585C20.7418 49.7734 26.1768 52.2136 31.8336 52.2136ZM43.1473 25.2604C43.1473 27.9224 45.3657 30.1408 48.0278 30.1408C50.6898 30.1408 52.9082 27.9224 52.9082 25.2604C52.9082 22.5983 50.6898 20.38 48.0278 20.38C45.3657 20.38 43.1473 22.5983 43.1473 25.2604ZM49.5806 25.2604C49.5806 26.118 48.8854 26.8132 48.0278 26.8132C47.1701 26.8132 46.4749 26.118 46.4749 25.2604C46.4749 24.4027 47.1701 23.7075 48.0278 23.7075C48.8854 23.7075 49.5806 24.4027 49.5806 25.2604Z" fill="white"/>
<path d="M48.0277 26.8132C48.8853 26.8132 49.5806 26.118 49.5806 25.2604C49.5806 24.4028 48.8853 23.7075 48.0277 23.7075C47.1701 23.7075 46.4749 24.4028 46.4749 25.2604C46.4749 26.118 47.1701 26.8132 48.0277 26.8132Z" fill="#262761"/>
<path d="M32.0555 0.303711C14.3085 0.303711 0 14.6122 0 32.3592C0 50.1061 14.3085 64.4146 32.0555 64.4146C49.8024 64.4146 64.1109 50.1061 64.1109 32.3592C64.1109 14.6122 49.6915 0.303711 32.0555 0.303711ZM46.5858 45.6694C42.8146 49.8843 37.3795 52.2136 31.8336 52.2136C26.1768 52.2136 20.7418 49.7734 16.9705 45.5585C13.0884 41.2327 11.4246 35.7976 11.9792 30.0299C12.9775 20.8236 20.2981 13.503 29.5043 12.3938C30.2808 12.2829 31.0572 12.2829 31.8336 12.2829C36.2704 12.2829 40.4853 13.7249 44.0347 16.4978C44.2565 16.6087 44.3674 16.9415 44.3674 17.1633C44.3674 17.4961 44.2565 17.7179 44.0347 17.9398L41.9272 19.8254C41.7054 20.0472 41.3726 20.1581 41.0399 20.1581C40.818 20.1581 40.4853 20.0472 40.3743 19.9363C37.8232 18.1616 34.8284 17.2742 31.8336 17.2742C27.5078 17.2742 23.4038 19.1599 20.6308 22.3765C17.747 25.5931 16.4159 29.808 16.9705 34.1339C17.747 41.0108 23.2929 46.5567 30.1698 47.3332C30.7244 47.4441 31.279 47.4441 31.9445 47.4441C35.9376 47.4441 39.7088 45.8912 42.5927 43.0073C42.8146 42.7855 43.1473 42.6746 43.4801 42.6746C43.7019 42.6746 43.9237 42.7855 44.1456 42.8964L46.4749 44.4493C46.6967 44.5602 46.8076 44.782 46.9185 45.1148C46.8076 45.2257 46.6967 45.4476 46.5858 45.6694ZM48.0277 30.1408C45.3657 30.1408 43.1473 27.9224 43.1473 25.2604C43.1473 22.5983 45.3657 20.38 48.0277 20.38C50.6898 20.38 52.9081 22.5983 52.9081 25.2604C52.9081 27.9224 50.6898 30.1408 48.0277 30.1408Z" fill="#262761"/>
</g>
<rect x="0.5" y="0.803711" width="63" height="63" rx="31.5" stroke="#070B14" stroke-opacity="0.15"/>
<defs>
<clipPath id="clip0_11313_1966">
<rect y="0.303711" width="64" height="64" rx="32" fill="white"/>
</clipPath>
</defs>
</svg>

<svg xmlns="http://www.w3.org/2000/svg" width="64" height="65" fill="none" viewBox="0 0 64 65"><g clip-path="url(#cel_svg-a)"><rect width="64" height="64" y=".304" fill="#fff" rx="32"/><path fill="#fff" fill-rule="evenodd" d="M31.834 52.214c5.546 0 10.98-2.33 14.752-6.545.11-.221.222-.443.333-.554-.111-.333-.222-.555-.444-.666l-2.33-1.553c-.221-.11-.443-.221-.665-.221-.333 0-.665.11-.887.332-2.884 2.884-6.655 4.437-10.648 4.437-.666 0-1.22 0-1.775-.11-6.877-.777-12.423-6.323-13.2-13.2-.554-4.326.777-8.54 3.66-11.757 2.774-3.217 6.878-5.103 11.204-5.103 2.994 0 5.99.888 8.54 2.662.111.111.444.222.666.222.333 0 .665-.11.887-.333l2.108-1.885c.222-.222.332-.444.332-.777 0-.221-.11-.554-.332-.665-3.55-2.773-7.765-4.215-12.201-4.215-.777 0-1.553 0-2.33.11-9.206 1.11-16.527 8.43-17.525 17.637-.554 5.768 1.11 11.203 4.992 15.529a20 20 0 0 0 14.863 6.655M43.147 25.26c0 2.662 2.219 4.88 4.88 4.88 2.663 0 4.881-2.218 4.881-4.88s-2.218-4.88-4.88-4.88-4.88 2.218-4.88 4.88m6.434 0a1.553 1.553 0 1 1-3.106 0 1.553 1.553 0 0 1 3.106 0" clip-rule="evenodd"/><path fill="#262761" d="M48.028 26.813a1.553 1.553 0 1 0 0-3.106 1.553 1.553 0 0 0 0 3.106"/><path fill="#262761" d="M32.056.304C14.309.304 0 14.612 0 32.359s14.309 32.056 32.056 32.056c17.746 0 32.055-14.309 32.055-32.056S49.69.304 32.055.304m14.53 45.365c-3.771 4.215-9.206 6.545-14.752 6.545a20 20 0 0 1-14.863-6.655c-3.883-4.326-5.546-9.761-4.992-15.53.999-9.205 8.32-16.526 17.525-17.635.777-.111 1.553-.111 2.33-.111 4.436 0 8.651 1.442 12.2 4.215.223.11.333.444.333.665 0 .333-.11.555-.332.777l-2.108 1.885c-.222.222-.554.333-.887.333-.222 0-.555-.11-.666-.222a14.95 14.95 0 0 0-8.54-2.662c-4.326 0-8.43 1.886-11.203 5.102-2.884 3.217-4.215 7.432-3.66 11.758.776 6.877 6.322 12.423 13.199 13.2.554.11 1.109.11 1.774.11 3.994 0 7.765-1.553 10.649-4.437.222-.221.554-.332.887-.332.222 0 .444.11.666.221l2.329 1.553c.222.111.333.333.444.666-.111.11-.222.333-.333.554m1.442-15.528c-2.662 0-4.88-2.219-4.88-4.88 0-2.663 2.218-4.881 4.88-4.881s4.88 2.218 4.88 4.88-2.218 4.88-4.88 4.88"/></g><rect width="63" height="63" x=".5" y=".804" stroke="#070B14" stroke-opacity=".15" rx="31.5"/><defs><clipPath id="cel_svg-a"><rect width="64" height="64" y=".304" fill="#fff" rx="32"/></clipPath></defs></svg>
